TCanvas/fit1_5.svg

<svg xmlns="http://www.w3.org/2000/svg" viewBox="0 0 1200 800" preserveAspectRatio="none" width="1200" height="800">
 <path d="M0,0H1200V800H0Z" style="fill: white;"></path>
 <g>
  <g transform="translate(120,80)">
   <path d="M0,0H960V640H0Z" style="fill: white; stroke: black; stroke-width: 1;"></path>
   <svg x="0" y="0" overflow="hidden" width="960" height="640" viewBox="0 0 960 640">
    <g>
     <path d="M0,313h10v-176h9v203h10v-67h9v-68h10v108h10v-176h9v203h10v-162h9v81h10v149h10v-162h9v13h10v54h9v14h10v-81h10v135h9v-122h10v135h9v-135h10v81h10v-13h9v67h10v-54h9v54h10v-67h19v-41h10v81h9v82h10v-258h10v230h9v-13h10v-41h9v-81h10v14h10v54h9v81h10v-122h9v14h10v122h10v-109h9v68h10v-68h9v41h10v-54h10v149h9v-122h10v81h9v41h10v-41h10v-27h9v-81h10v13h9v-135h10v41h10v-122h9v-54h10v-41h9v217h10v-163h10v68h9v54h10v14h9v94h10v14h10v122h9v-95h10v122h9v67h10v-108h10v68h9v-27h10v13h9v27h10v27h10v27h9v27h10v-94h19v108h10v-122h9v14h10v13h9v14h10v40h10v-40h19v-14h9v14h10v27h10v-14h9v27h19v-54h10v41h19v40h10v-67h9v27h10" style="stroke-linejoin: miter; stroke: #00009a; stroke-width: 1; fill: none;"></path>
    </g>
    <g>
     <path d="M0,266.24C0.72,266.48,3.37,267.38,4.8,267.87S8.17,269.01,9.6,269.5S12.97,270.64,14.4,271.13S17.77,272.27,19.2,272.76S22.57,273.9,24,274.39S27.37,275.53,28.8,276.02S32.17,277.16,33.6,277.64S36.97,278.79,38.4,279.27S41.77,280.42,43.2,280.9S46.57,282.04,48,282.53S51.37,283.67,52.8,284.16S56.17,285.3,57.6,285.79S60.97,286.93,62.4,287.42S65.77,288.56,67.2,289.05S70.57,290.19,72,290.68S75.37,291.82,76.8,292.31S80.17,293.45,81.6,293.93S84.97,295.08,86.4,295.56S89.77,296.71,91.2,297.19S94.57,298.33,96,298.82S99.37,299.96,100.8,300.45S104.17,301.59,105.6,302.08S108.97,303.22,110.4,303.71S113.77,304.85,115.2,305.34S118.57,306.48,120,306.97S123.37,308.11,124.8,308.6S128.17,309.74,129.6,310.22S132.97,311.37,134.4,311.85S137.77,313,139.2,313.48S142.57,314.62,144,315.11S147.37,316.25,148.8,316.74S152.17,317.88,153.6,318.37S156.97,319.51,158.4,320S161.77,321.14,163.2,321.63S166.57,322.77,168,323.26S171.37,324.4,172.8,324.89S176.17,326.03,177.6,326.51S180.97,327.66,182.4,328.14S185.77,329.29,187.2,329.77S190.57,330.92,192,331.4S195.37,332.54,196.8,333.03S200.17,334.17,201.6,334.66S204.97,335.8,206.4,336.29S209.77,337.43,211.2,337.92S214.57,339.06,216,339.55S219.37,340.69,220.8,341.18S224.17,342.32,225.6,342.81S228.97,343.95,230.4,344.43S233.77,345.58,235.2,346.06S238.57,347.21,240,347.69S243.37,348.83,244.8,349.32S248.17,350.46,249.6,350.95S252.97,352.09,254.4,352.58S257.77,353.72,259.2,354.21S262.57,355.35,264,355.84S267.37,356.98,268.8,357.47S272.17,358.61,273.6,359.1S276.97,360.24,278.4,360.72S281.77,361.87,283.2,362.35S286.57,363.5,288,363.98S291.37,365.12,292.8,365.61S296.17,366.75,297.6,367.24S300.97,368.38,302.4,368.87S305.77,370.01,307.2,370.5S310.57,371.64,312,372.13S315.37,373.27,316.8,373.76S320.17,374.9,321.6,375.39S324.97,376.53,326.4,377.01S329.77,378.16,331.2,378.64S334.57,379.79,336,380.27S339.37,381.41,340.8,381.9S344.17,383.04,345.6,383.53S348.97,384.67,350.4,385.16S353.77,386.3,355.2,386.79S358.57,387.93,360,388.42S363.37,389.56,364.8,390.05S368.17,391.19,369.6,391.68S372.97,392.82,374.4,393.3S377.77,394.45,379.2,394.93S382.57,396.08,384,396.56S387.37,397.71,388.8,398.19S392.17,399.33,393.6,399.82S396.97,400.96,398.4,401.45S401.77,402.59,403.2,403.08S406.57,404.22,408,404.71S411.37,405.85,412.8,406.34S416.17,407.48,417.6,407.97S420.97,409.11,422.4,409.6S425.77,410.74,427.2,411.22S430.57,412.37,432,412.85S435.37,414,436.8,414.48S440.17,415.62,441.6,416.11S444.97,417.25,446.4,417.74S449.77,418.88,451.2,419.37S454.57,420.51,456,421S459.37,422.14,460.8,422.63S464.17,423.77,465.6,424.26S468.97,425.4,470.4,425.89S473.77,427.03,475.2,427.51S479.28,428.9,480,429.14" style="fill: none; stroke: red; stroke-width: 2;"></path>
    </g>
    <g>
     <path d="M672,494.3C672.43,494.45,674.02,494.99,674.88,495.28S676.9,495.97,677.76,496.26S679.78,496.94,680.64,497.24S682.66,497.92,683.52,498.21S685.54,498.9,686.4,499.19S688.42,499.88,689.28,500.17S691.3,500.85,692.16,501.15S694.18,501.83,695.04,502.12S697.06,502.81,697.92,503.1S699.94,503.79,700.8,504.08S702.82,504.76,703.68,505.06S705.7,505.74,706.56,506.03S708.58,506.72,709.44,507.01S711.46,507.7,712.32,507.99S714.34,508.67,715.2,508.97S717.22,509.65,718.08,509.94S720.1,510.63,720.96,510.92S722.98,511.61,723.84,511.9S725.86,512.58,726.72,512.88S728.74,513.56,729.6,513.85S731.62,514.54,732.48,514.83S734.5,515.52,735.36,515.81S737.38,516.49,738.24,516.79S740.26,517.47,741.12,517.76S743.14,518.45,744,518.74S746.02,519.43,746.88,519.72S748.9,520.4,749.76,520.69S751.78,521.38,752.64,521.67S754.66,522.36,755.52,522.65S757.54,523.33,758.4,523.63S760.42,524.31,761.28,524.6S763.3,525.29,764.16,525.58S766.18,526.27,767.04,526.56S769.06,527.24,769.92,527.54S771.94,528.22,772.8,528.51S774.82,529.2,775.68,529.49S777.7,530.18,778.56,530.47S780.58,531.15,781.44,531.45S783.46,532.13,784.32,532.42S786.34,533.11,787.2,533.4S789.22,534.09,790.08,534.38S792.1,535.06,792.96,535.36S794.98,536.04,795.84,536.33S797.86,537.02,798.72,537.31S800.74,538,801.6,538.29S803.62,538.97,804.48,539.27S806.5,539.95,807.36,540.24S809.38,540.93,810.24,541.22S812.26,541.91,813.12,542.2S815.14,542.88,816,543.18S818.02,543.86,818.88,544.15S820.9,544.84,821.76,545.13S823.78,545.82,824.64,546.11S826.66,546.79,827.52,547.08S829.54,547.77,830.4,548.06S832.42,548.75,833.28,549.04S835.3,549.73,836.16,550.02S838.18,550.7,839.04,550.99S841.06,551.68,841.92,551.97S843.94,552.66,844.8,552.95S846.82,553.63,847.68,553.93S849.7,554.61,850.56,554.9S852.58,555.59,853.44,555.88S855.46,556.57,856.32,556.86S858.34,557.54,859.2,557.84S861.22,558.52,862.08,558.81S864.1,559.5,864.96,559.79S866.98,560.48,867.84,560.77S869.86,561.45,870.72,561.75S872.74,562.43,873.6,562.72S875.62,563.41,876.48,563.7S878.5,564.39,879.36,564.68S881.38,565.36,882.24,565.66S884.26,566.34,885.12,566.63S887.14,567.32,888,567.61S890.02,568.3,890.88,568.59S892.9,569.27,893.76,569.57S895.78,570.25,896.64,570.54S898.66,571.23,899.52,571.52S901.54,572.21,902.4,572.5S904.42,573.18,905.28,573.48S907.3,574.16,908.16,574.45S910.18,575.14,911.04,575.43S913.06,576.12,913.92,576.41S915.94,577.09,916.8,577.38S918.82,578.07,919.68,578.36S921.7,579.05,922.56,579.34S924.58,580.02,925.44,580.32S927.46,581,928.32,581.29S930.34,581.98,931.2,582.27S933.22,582.96,934.08,583.25S936.1,583.93,936.96,584.23S938.98,584.91,939.84,585.2S941.86,585.89,942.72,586.18S944.74,586.87,945.6,587.16S947.62,587.84,948.48,588.14S950.5,588.82,951.36,589.11S953.38,589.8,954.24,590.09S956.26,590.78,957.12,591.07S959.57,591.9,960,592.05" style="fill: none; stroke: red; stroke-width: 2;"></path>
    </g>
   </svg>
   <g>
    <g transform="translate(0,640)">
     <path d="M0,0h960M0,-24v24m19,-12v12m19,-12v12m20,-12v12m19,-12v12m19,-24v24m19,-12v12m19,-12v12m20,-12v12m19,-12v12m19,-24v24m19,-12v12m19,-12v12m20,-12v12m19,-12v12m19,-24v24m19,-12v12m19,-12v12m20,-12v12m19,-12v12m19,-24v24m19,-12v12m19,-12v12m20,-12v12m19,-12v12m19,-24v24m19,-12v12m19,-12v12m20,-12v12m19,-12v12m19,-24v24m19,-12v12m19,-12v12m20,-12v12m19,-12v12m19,-24v24m19,-12v12m19,-12v12m20,-12v12m19,-12v12m19,-24v24m19,-12v12m19,-12v12m20,-12v12m19,-12v12m19,-24v24m19,-12v12m19,-12v12m20,-12v12m19,-12v12m19,-24v24" style="stroke: black; stroke-width: 1;"></path>
     <g font-family="Arial" font-size="28" space="preserve" fill="black" text-anchor="middle">
      <text dy=".8em" transform="translate(0,6)">
       0
      </text>
      <text dy=".8em" transform="translate(96,6)">
       0.5
      </text>
      <text dy=".8em" transform="translate(192,6)">
       1
      </text>
      <text dy=".8em" transform="translate(288,6)">
       1.5
      </text>
      <text dy=".8em" transform="translate(384,6)">
       2
      </text>
      <text dy=".8em" transform="translate(480,6)">
       2.5
      </text>
      <text dy=".8em" transform="translate(576,6)">
       3
      </text>
      <text dy=".8em" transform="translate(672,6)">
       3.5
      </text>
      <text dy=".8em" transform="translate(768,6)">
       4
      </text>
      <text dy=".8em" transform="translate(864,6)">
       4.5
      </text>
      <text dy=".8em" transform="translate(960,6)">
       5
      </text>
     </g>
    </g>
    <g>
     <path d="M0,0v640M18,638h-18m18,-14h-18m18,-13h-18m18,-14h-18m36,-13h-36m18,-14h-18m18,-13h-18m18,-14h-18m18,-13h-18m36,-14h-36m18,-13h-18m18,-14h-18m18,-13h-18m18,-14h-18m36,-13h-36m18,-14h-18m18,-14h-18m18,-13h-18m18,-14h-18m36,-13h-36m18,-14h-18m18,-13h-18m18,-14h-18m18,-13h-18m36,-14h-36m18,-13h-18m18,-14h-18m18,-13h-18m18,-14h-18m36,-13h-36m18,-14h-18m18,-13h-18m18,-14h-18m18,-14h-18m36,-13h-36m18,-14h-18m18,-13h-18m18,-14h-18m18,-13h-18m36,-14h-36m18,-13h-18m18,-14h-18m18,-13h-18m18,-14h-18m36,-13h-36m18,-14h-18m18,-13h-18m18,-14h-18" style="stroke: black; stroke-width: 1;"></path>
     <g font-family="Arial" font-size="28" space="preserve" fill="black" text-anchor="end">
      <text dy=".4em" transform="translate(-4,584)">
       5
      </text>
      <text dy=".4em" transform="translate(-4,516)">
       10
      </text>
      <text dy=".4em" transform="translate(-4,449)">
       15
      </text>
      <text dy=".4em" transform="translate(-4,381)">
       20
      </text>
      <text dy=".4em" transform="translate(-4,313)">
       25
      </text>
      <text dy=".4em" transform="translate(-4,246)">
       30
      </text>
      <text dy=".4em" transform="translate(-4,178)">
       35
      </text>
      <text dy=".4em" transform="translate(-4,110)">
       40
      </text>
      <text dy=".4em" transform="translate(-4,43)">
       45
      </text>
     </g>
    </g>
   </g>
  </g>
  <g transform="translate(120,4)" font-family="Arial" font-size="40" space="preserve">
   <text fill="black" text-anchor="middle" dy=".8em" transform="translate(480)">
    background + signal
   </text>
  </g>
  <g transform="translate(936,52)" font-family="Arial" font-size="25" space="preserve" fill="black">
   <path d="M0,0H240V128H0Z" style="fill: white; stroke: black; stroke-width: 1;"></path>
   <text text-anchor="middle" dy=".4em" transform="translate(120,16)">
    h
   </text>
   <text text-anchor="start" dy=".4em" transform="translate(12,48)">
    Entries
   </text>
   <text text-anchor="end" dy=".4em" transform="translate(228,48)">
    2000
   </text>
   <text text-anchor="start" dy=".4em" transform="translate(12,80)">
    Mean
   </text>
   <text text-anchor="end" dy=".4em" transform="translate(228,80)">
    2.046
   </text>
   <text text-anchor="start" dy=".4em" transform="translate(12,112)">
    Std Dev
   </text>
   <text text-anchor="end" dy=".4em" transform="translate(228,112)">
    1.288
   </text>
   <path d="M0,32h240" style="stroke: black; stroke-width: 1;"></path>
  </g>
 </g>
</svg>

<svg xmlns="http://www.w3.org/2000/svg" viewBox="0 0 1200 800" preserveAspectRatio="none" width="1200" height="800">
 <path d="M0,0H1200V800H0Z" style="fill: white;"></path>
 <g>
  <g transform="translate(120,80)">
   <path d="M0,0H960V640H0Z" style="fill: white; stroke: black; stroke-width: 1;"></path>
   <svg x="0" y="0" overflow="hidden" width="960" height="640" viewBox="0 0 960 640">
    <g>
     <path d="M0,313h10v-176h9v203h10v-67h9v-68h10v108h10v-176h9v203h10v-162h9v81h10v149h10v-162h9v13h10v54h9v14h10v-81h10v135h9v-122h10v135h9v-135h10v81h10v-13h9v67h10v-54h9v54h10v-67h19v-41h10v81h9v82h10v-258h10v230h9v-13h10v-41h9v-81h10v14h10v54h9v81h10v-122h9v14h10v122h10v-109h9v68h10v-68h9v41h10v-54h10v149h9v-122h10v81h9v41h10v-41h10v-27h9v-81h10v13h9v-135h10v41h10v-122h9v-54h10v-41h9v217h10v-163h10v68h9v54h10v14h9v94h10v14h10v122h9v-95h10v122h9v67h10v-108h10v68h9v-27h10v13h9v27h10v27h10v27h9v27h10v-94h19v108h10v-122h9v14h10v13h9v14h10v40h10v-40h19v-14h9v14h10v27h10v-14h9v27h19v-54h10v41h19v40h10v-67h9v27h10" style="stroke-linejoin: miter; stroke: #00009a; stroke-width: 1; fill: none;"></path>
    </g>
    <g>
     <path d="M0,266.24C0.72,266.48,3.37,267.38,4.8,267.87S8.17,269.01,9.6,269.5S12.97,270.64,14.4,271.13S17.77,272.27,19.2,272.76S22.57,273.9,24,274.39S27.37,275.53,28.8,276.02S32.17,277.16,33.6,277.64S36.97,278.79,38.4,279.27S41.77,280.42,43.2,280.9S46.57,282.04,48,282.53S51.37,283.67,52.8,284.16S56.17,285.3,57.6,285.79S60.97,286.93,62.4,287.42S65.77,288.56,67.2,289.05S70.57,290.19,72,290.68S75.37,291.82,76.8,292.31S80.17,293.45,81.6,293.93S84.97,295.08,86.4,295.56S89.77,296.71,91.2,297.19S94.57,298.33,96,298.82S99.37,299.96,100.8,300.45S104.17,301.59,105.6,302.08S108.97,303.22,110.4,303.71S113.77,304.85,115.2,305.34S118.57,306.48,120,306.97S123.37,308.11,124.8,308.6S128.17,309.74,129.6,310.22S132.97,311.37,134.4,311.85S137.77,313,139.2,313.48S142.57,314.62,144,315.11S147.37,316.25,148.8,316.74S152.17,317.88,153.6,318.37S156.97,319.51,158.4,320S161.77,321.14,163.2,321.63S166.57,322.77,168,323.26S171.37,324.4,172.8,324.89S176.17,326.03,177.6,326.51S180.97,327.66,182.4,328.14S185.77,329.29,187.2,329.77S190.57,330.92,192,331.4S195.37,332.54,196.8,333.03S200.17,334.17,201.6,334.66S204.97,335.8,206.4,336.29S209.77,337.43,211.2,337.92S214.57,339.06,216,339.55S219.37,340.69,220.8,341.18S224.17,342.32,225.6,342.81S228.97,343.95,230.4,344.43S233.77,345.58,235.2,346.06S238.57,347.21,240,347.69S243.37,348.83,244.8,349.32S248.17,350.46,249.6,350.95S252.97,352.09,254.4,352.58S257.77,353.72,259.2,354.21S262.57,355.35,264,355.84S267.37,356.98,268.8,357.47S272.17,358.61,273.6,359.1S276.97,360.24,278.4,360.72S281.77,361.87,283.2,362.35S286.57,363.5,288,363.98S291.37,365.12,292.8,365.61S296.17,366.75,297.6,367.24S300.97,368.38,302.4,368.87S305.77,370.01,307.2,370.5S310.57,371.64,312,372.13S315.37,373.27,316.8,373.76S320.17,374.9,321.6,375.39S324.97,376.53,326.4,377.01S329.77,378.16,331.2,378.64S334.57,379.79,336,380.27S339.37,381.41,340.8,381.9S344.17,383.04,345.6,383.53S348.97,384.67,350.4,385.16S353.77,386.3,355.2,386.79S358.57,387.93,360,388.42S363.37,389.56,364.8,390.05S368.17,391.19,369.6,391.68S372.97,392.82,374.4,393.3S377.77,394.45,379.2,394.93S382.57,396.08,384,396.56S387.37,397.71,388.8,398.19S392.17,399.33,393.6,399.82S396.97,400.96,398.4,401.45S401.77,402.59,403.2,403.08S406.57,404.22,408,404.71S411.37,405.85,412.8,406.34S416.17,407.48,417.6,407.97S420.97,409.11,422.4,409.6S425.77,410.74,427.2,411.22S430.57,412.37,432,412.85S435.37,414,436.8,414.48S440.17,415.62,441.6,416.11S444.97,417.25,446.4,417.74S449.77,418.88,451.2,419.37S454.57,420.51,456,421S459.37,422.14,460.8,422.63S464.17,423.77,465.6,424.26S468.97,425.4,470.4,425.89S473.77,427.03,475.2,427.51S479.28,428.9,480,429.14" style="fill: none; stroke: red; stroke-width: 2;"></path>
    </g>
    <g>
     <path d="M672,494.3C672.43,494.45,674.02,494.99,674.88,495.28S676.9,495.97,677.76,496.26S679.78,496.94,680.64,497.24S682.66,497.92,683.52,498.21S685.54,498.9,686.4,499.19S688.42,499.88,689.28,500.17S691.3,500.85,692.16,501.15S694.18,501.83,695.04,502.12S697.06,502.81,697.92,503.1S699.94,503.79,700.8,504.08S702.82,504.76,703.68,505.06S705.7,505.74,706.56,506.03S708.58,506.72,709.44,507.01S711.46,507.7,712.32,507.99S714.34,508.67,715.2,508.97S717.22,509.65,718.08,509.94S720.1,510.63,720.96,510.92S722.98,511.61,723.84,511.9S725.86,512.58,726.72,512.88S728.74,513.56,729.6,513.85S731.62,514.54,732.48,514.83S734.5,515.52,735.36,515.81S737.38,516.49,738.24,516.79S740.26,517.47,741.12,517.76S743.14,518.45,744,518.74S746.02,519.43,746.88,519.72S748.9,520.4,749.76,520.69S751.78,521.38,752.64,521.67S754.66,522.36,755.52,522.65S757.54,523.33,758.4,523.63S760.42,524.31,761.28,524.6S763.3,525.29,764.16,525.58S766.18,526.27,767.04,526.56S769.06,527.24,769.92,527.54S771.94,528.22,772.8,528.51S774.82,529.2,775.68,529.49S777.7,530.18,778.56,530.47S780.58,531.15,781.44,531.45S783.46,532.13,784.32,532.42S786.34,533.11,787.2,533.4S789.22,534.09,790.08,534.38S792.1,535.06,792.96,535.36S794.98,536.04,795.84,536.33S797.86,537.02,798.72,537.31S800.74,538,801.6,538.29S803.62,538.97,804.48,539.27S806.5,539.95,807.36,540.24S809.38,540.93,810.24,541.22S812.26,541.91,813.12,542.2S815.14,542.88,816,543.18S818.02,543.86,818.88,544.15S820.9,544.84,821.76,545.13S823.78,545.82,824.64,546.11S826.66,546.79,827.52,547.08S829.54,547.77,830.4,548.06S832.42,548.75,833.28,549.04S835.3,549.73,836.16,550.02S838.18,550.7,839.04,550.99S841.06,551.68,841.92,551.97S843.94,552.66,844.8,552.95S846.82,553.63,847.68,553.93S849.7,554.61,850.56,554.9S852.58,555.59,853.44,555.88S855.46,556.57,856.32,556.86S858.34,557.54,859.2,557.84S861.22,558.52,862.08,558.81S864.1,559.5,864.96,559.79S866.98,560.48,867.84,560.77S869.86,561.45,870.72,561.75S872.74,562.43,873.6,562.72S875.62,563.41,876.48,563.7S878.5,564.39,879.36,564.68S881.38,565.36,882.24,565.66S884.26,566.34,885.12,566.63S887.14,567.32,888,567.61S890.02,568.3,890.88,568.59S892.9,569.27,893.76,569.57S895.78,570.25,896.64,570.54S898.66,571.23,899.52,571.52S901.54,572.21,902.4,572.5S904.42,573.18,905.28,573.48S907.3,574.16,908.16,574.45S910.18,575.14,911.04,575.43S913.06,576.12,913.92,576.41S915.94,577.09,916.8,577.38S918.82,578.07,919.68,578.36S921.7,579.05,922.56,579.34S924.58,580.02,925.44,580.32S927.46,581,928.32,581.29S930.34,581.98,931.2,582.27S933.22,582.96,934.08,583.25S936.1,583.93,936.96,584.23S938.98,584.91,939.84,585.2S941.86,585.89,942.72,586.18S944.74,586.87,945.6,587.16S947.62,587.84,948.48,588.14S950.5,588.82,951.36,589.11S953.38,589.8,954.24,590.09S956.26,590.78,957.12,591.07S959.57,591.9,960,592.05" style="fill: none; stroke: red; stroke-width: 2;"></path>
    </g>
   </svg>
   <g>
    <g transform="translate(0,640)">
     <path d="M0,0h960M0,-24V0M19,-12V0M38,-12V0M58,-12V0M77,-12V0M96,-24V0M115,-12V0M134,-12V0M154,-12V0M173,-12V0M192,-24V0M211,-12V0M230,-12V0M250,-12V0M269,-12V0M288,-24V0M307,-12V0M326,-12V0M346,-12V0M365,-12V0M384,-24V0M403,-12V0M422,-12V0M442,-12V0M461,-12V0M480,-24V0M499,-12V0M518,-12V0M538,-12V0M557,-12V0M576,-24V0M595,-12V0M614,-12V0M634,-12V0M653,-12V0M672,-24V0M691,-12V0M710,-12V0M730,-12V0M749,-12V0M768,-24V0M787,-12V0M806,-12V0M826,-12V0M845,-12V0M864,-24V0M883,-12V0M902,-12V0M922,-12V0M941,-12V0M960,-24V0" style="stroke: black; stroke-width: 1;"></path>
     <g font-family="Arial" font-size="28" space="preserve" fill="black" text-anchor="middle">
      <text dy=".8em" transform="translate(0,6)">
       0
      </text>
      <text dy=".8em" transform="translate(96,6)">
       0.5
      </text>
      <text dy=".8em" transform="translate(192,6)">
       1
      </text>
      <text dy=".8em" transform="translate(288,6)">
       1.5
      </text>
      <text dy=".8em" transform="translate(384,6)">
       2
      </text>
      <text dy=".8em" transform="translate(480,6)">
       2.5
      </text>
      <text dy=".8em" transform="translate(576,6)">
       3
      </text>
      <text dy=".8em" transform="translate(672,6)">
       3.5
      </text>
      <text dy=".8em" transform="translate(768,6)">
       4
      </text>
      <text dy=".8em" transform="translate(864,6)">
       4.5
      </text>
      <text dy=".8em" transform="translate(960,6)">
       5
      </text>
     </g>
    </g>
    <g>
     <path d="M0,0v640M18,638H0M18,624H0M18,611H0M18,597H0M36,584H0M18,570H0M18,557H0M18,543H0M18,530H0M36,516H0M18,503H0M18,489H0M18,476H0M18,462H0M36,449H0M18,435H0M18,421H0M18,408H0M18,394H0M36,381H0M18,367H0M18,354H0M18,340H0M18,327H0M36,313H0M18,300H0M18,286H0M18,273H0M18,259H0M36,246H0M18,232H0M18,219H0M18,205H0M18,191H0M36,178H0M18,164H0M18,151H0M18,137H0M18,124H0M36,110H0M18,97H0M18,83H0M18,70H0M18,56H0M36,43H0M18,29H0M18,16H0M18,2H0" style="stroke: black; stroke-width: 1;"></path>
     <g font-family="Arial" font-size="28" space="preserve" fill="black" text-anchor="end">
      <text dy=".4em" transform="translate(-4,584)">
       5
      </text>
      <text dy=".4em" transform="translate(-4,516)">
       10
      </text>
      <text dy=".4em" transform="translate(-4,449)">
       15
      </text>
      <text dy=".4em" transform="translate(-4,381)">
       20
      </text>
      <text dy=".4em" transform="translate(-4,313)">
       25
      </text>
      <text dy=".4em" transform="translate(-4,246)">
       30
      </text>
      <text dy=".4em" transform="translate(-4,178)">
       35
      </text>
      <text dy=".4em" transform="translate(-4,110)">
       40
      </text>
      <text dy=".4em" transform="translate(-4,43)">
       45
      </text>
     </g>
    </g>
   </g>
  </g>
  <g transform="translate(120,4)" font-family="Arial" font-size="40" space="preserve">
   <text fill="black" text-anchor="middle" dy=".8em" transform="translate(480)">
    background + signal
   </text>
  </g>
  <g transform="translate(936,52)" font-family="Arial" font-size="25" space="preserve" fill="black">
   <path d="M0,0H240V128H0Z" style="fill: white; stroke: black; stroke-width: 1;"></path>
   <text text-anchor="middle" dy=".4em" transform="translate(120,16)">
    h
   </text>
   <text text-anchor="start" dy=".4em" transform="translate(12,48)">
    Entries
   </text>
   <text text-anchor="end" dy=".4em" transform="translate(228,48)">
    2000
   </text>
   <text text-anchor="start" dy=".4em" transform="translate(12,80)">
    Mean
   </text>
   <text text-anchor="end" dy=".4em" transform="translate(228,80)">
    2.046
   </text>
   <text text-anchor="start" dy=".4em" transform="translate(12,112)">
    Std Dev
   </text>
   <text text-anchor="end" dy=".4em" transform="translate(228,112)">
    1.288
   </text>
   <path d="M0,32h240" style="stroke: black; stroke-width: 1;"></path>
  </g>
 </g>
</svg>
